X: 3036
T: LADY MARGERET STEWART
Q:"Reel."
R: Reel.
%R:reel
B: James Kerr "Merry Melodies" v.3 p.6 #36
Z: 2016 John Chambers <jc:trillian.mit.edu>
M: C
L: 1/8
K: Bm
g |\
f2(Bf) dBfB | faef cAec |\
f2(Bf) dBfB | ecac B/B/B B ::\
a |\
fBBc dcdB | eAAB cdec |\
fBBc dcdB | afec B/B/B B :|

%%sep 1 1 500
%%sep 1 1 500

